X:1
T:Sangen
T:Sangen
T:Ret som Ørnen stiger
T:L. Spohr
T:Joh. D. Behrens
C:L. Spohr
Z:Joh. D. Behrens
%%score [ 1 2 3 4 ]
L:1/8
M:4/4
K:D
V:1 treble-8 nm="Tenor 1" snm="T1."
V:2 treble-8 nm="T2"
V:3 bass nm="B1"
V:4 bass nm="B2"
V:1
!f!"^Con moto e spirituoso" D3 D F2 A2 | d4 A4 | d3 d!<(! d2 e2!<)! | f6 z2 |!mf! A3 A d2 d2 | %5
w: 1.Ret som Ør- nen|sti- ger|op mot Him- lens|Blaa,|gjen- nem Luf- tens|
w: 2.Alt hvad stort og|her- ligt|for din Tan- ke|staar,|alt, hvad ømt og|
w: 3.Frej- dig ved dit|Vir- ke,|trø- ste- rig i|Nød,|høi- tids- fuld i|
!<(! c6 ^d2!<)! | e3 A!>(! c2 B2 | A6!>)! z2 ||!p! B3 B!<(! B2 c2!<)! | d8 | %10
w: Ri- ger|San- gens To- ner|gaa,|løf- ten- de din|Sjæl|
w: kjær- ligt,|helst dit Sind at-|traar,|al dit Hjer- tes|Trang|
w: Kir- ke,|ve- mods- tung i|Død|gjen- nem Ve og|Lyst|
!mf! e3 c!<(! d2 e2!<)! | f8 |!f! d2!<(! A2 d2!<)! e2 |!ff! f4 a2 g2 |!>(! f6 e2!>)! | d6 z2 |] %16
w: op mot Ly- sets|Væld,|løf- ten- de din|Sjæl op mot|Ly- sets|Væld.|
w: to- ner frem i|Sang,|al dit Hjer- tes|Trang to- ner|frem i|Sang.|
w: to- ner San- gens|Røst,|gjen- nem Ve og|Lyst to- ner|San- gens|Røst.|
V:2
!f! D3 D F2 A2 | d4 A4 | A3 A!<(! B2 c2!<)! | d6 z2 |!mf! A3 A B2 B2 |!<(! B4 A4!<)! | %6
w: 1.Ret som Ør- nen|sti- ger|op mot Him- lens|Blaa,|gjen- nem Luf- tens|Ri- ger|
w: 2.Alt hvad stort og|her- ligt|for din Tan- ke|staar,|alt, hvad ømt og|kjær- ligt,|
w: 3.Frej- dig ved dit|Vir- ke,|trø- ste- rig i|Nød,|høi- tids- fuld i|Kir- ke,|
 c3 A!>(! A2 ^G2 | A6!>)! z2 ||!p! B3 B!<(! B2 ^A2!<)! | B8 |!mf! c3 =A!<(! B2 c2!<)! | d8 | %12
w: San- gens To- ner|gaa,|løf- ten- de din|Sjæl|op mot Ly- sets|Væld,|
w: helst dit Sind at-|traar,|al dit Hjer- tes|Trang|to- ner frem i|Sang,|
w: ve- mods- tung i|Død|gjen- nem Ve og|Lyst|to- ner San- gens|Røst,|
!f! d2!<(! A2 d2!<)! c2 |!ff! d4 d2 e2 | d4!>(! c4!>)! | A6 z2 |] %16
w: løf- ten- de din|Sjæl op mot|Ly- sets|Væld.|
w: al dit Hjer- tes|Trang to- ner|frem i|Sang.|
w: gjen- nem Ve og|Lyst to- ner|San- gens|Røst.|
V:3
!f! D,3 D, F,2 A,2 | D4 A,4 | F,3 F,!<(! F,2 A,2!<)! | A,6 z2 |!mf! F,3 F, F,2 F,2 | %5
w: 1.Ret som Ør- nen|sti- ger|op mot Him- lens|Blaa,|gjen- nem Luf- tens|
w: 2.Alt hvad stort og|her- ligt|for din Tan- ke|staar,|alt, hvad ømt og|
w: 3.Frej- dig ved dit|Vir- ke,|trø- ste- rig i|Nød,|høi- tids- fuld i|
!<(! (^E,2 ^G,2) F,4!<)! | A,3 F,!>(! E,2 D,2 | C,6!>)! z2 ||!p! =G,3 G,!<(! G,2 F,2!<)! | F,8 | %10
w: Ri- * ger|San- gens To- ner|gaa,|løf- ten- de din|Sjæl|
w: kjær- * ligt,|helst dit Sind at-|traar,|al dit Hjer- tes|Trang|
w: Kir- * ke,|ve- mods- tung i|Død|gjen- nem Ve og|Lyst|
!mf! A,3 A,!<(! A,2 A,2!<)! | A,8 |!f! D2!<(! A,2 A,2!<)! A,2 |!ff! A,4 A,2 B,2 | A,4!>(! G,4!>)! | %15
w: op mot Ly- sets|Væld,|løf- ten- de din|Sjæl op mot|Ly- sets|
w: to- ner frem i|Sang,|al dit Hjer- tes|Trang to- ner|frem i|
w: to- ner San- gens|Røst,|gjen- nem Ve og|Lyst to- ner|San- gens|
 F,6 z2 |] %16
w: Væld.|
w: Sang.|
w: Røst.|
V:4
!f! D,3 D, F,2 A,2 | D4 A,4 | D,3 D,!<(! B,,2 A,,2!<)! | D,6 z2 |!mf! D,3 C, B,,2 B,,2 | %5
w: 1.Ret som Ør- nen|sti- ger|op mot Him- lens|Blaa,|gjen- nem Luf- tens|
w: 2.Alt hvad stort og|her- ligt|for din Tan- ke|staar,|alt, hvad ømt og|
w: 3.Frej- dig ved dit|Vir- ke,|trø- ste- rig i|Nød,|høi- tids- fuld i|
!<(! C,4 F,4!<)! | E,3 F,!>(! E,2 [E,,E,]2 | A,,6!>)! z2 || z8 |!p! B,,3!<(! D, F,2 B,2!<)! | %10
w: Ri- ger|San- gens To- ner|gaa,||løf- ten- de din|
w: kjær- ligt,|helst dit Sind at-|traar,||al dit Hjer- tes|
w: Kir- ke,|ve- mods- tung i|Død||gjen- nem Ve og|
 A,6 z2 |!mf! D,3!<(! D, F,2 A,2!<)! |!f! D2!<(! A,2 F,2!<)! E,2 |!ff! D,4 F,2 G,2 | %14
w: Sjæl|op mot Ly- sets|Straa- le- væld, din|Sjæl op mot|
w: Trang|to- ner fram i|Sang, dit Hjer- tes|Trang to- ner|
w: Lyst|to- ner San- gens|Røst, i Ve og|Lyst to- ner|
 A,4!>(! A,,4!>)! | D,6 z2 |] %16
w: Ly- sets|Væld.|
w: frem i|Sang.|
w: San- gens|Røst.|

